X:11
T: les chaminioux
M: 2/4
L: 1/8
R: bourree
K: Amin
|:c3 A|c3 A|cd ed/c/|BA BG|c3 A|c3 A|cd ed/c/|1 B4:|2 B3 d||
K: Gmaj
|:B>d Bd|A3 B|c/B/c/d/ ef|ed2 d|B>d B/d/B/G/|A3 B|c/B/c/d/ ef|g3 z:|
